X: 38
T: Tipping Back the Corn
C:Composer unknown
B: canberra pickers and fiddlers
B: tunes
M:C|
L:1/8
R: reel
Q: 1/4=100
K:A
V:1 
fg \
| "A"a2g2 f2e2 | c3d cBAB | cBcd cBA2 | "D"F6 Bc |\
| "Bm"d2c2 BA3 | "E"B3c B2FA | BcBA FEFG | "A"A4-A2 :|
|: A,2- |\
| "A"A,2A,A, A,2"D"F2 | "A"E3F E2 "E"(3EFG | "A"A2AA A2"D"f2 | "A"e6 ce |\
| "D"fgfe dcBA | "Bm"BcBA F2FA | "E"BcBA FEFG | "A"A4-A2 :|
% abcbook-tune_id 63da5934e920cc8d6cbc43a9
% abcbook-tune_composer_id 
% abcbook-link-0 https://www.youtube.com/watch?v=OMIgUuemoYE
% abcbook-boost 10
% abcbook-difficulty 0
% abcbook-tags canberra pickers and fiddlers,old time tunes,© free
% abcbook-tablature 
% abcbook-transpose 
% abcbook-tuning AEAE
% abcbook-lastupdated 1703729570159
% abcbook-src-url https://tunebook.net/scrape/tunes.abc
% abcbook-soundfonts 
% abcbook-repeats 1
%%gchordfont "itim-music,Itim" 20

